X: 641
M: 6/8
L: 1/8
K: D
V: 1
f/e/ |\
d2D (F/G/A)F | EFE (Tc>Bc) |\
d2D (F/G/A)F | A3 d2 :|\
|: A |\
dfa afd | cde ecA |
ded fdg | Tf3 a2b |\
afa geg | fdf ecA |\
{Bc}d2D (F/G/A)F A3 d2 :|
V: 2 clef=bass middle=d
z | d3 d3 | e3 e3 | d3 d3 | A3 D2 :| |: z | d3 d3 |

